img/service/button-2.svg

<svg width="52" height="52" viewBox="0 0 52 52" fill="none" xmlns="http://www.w3.org/2000/svg">
<rect width="52" height="52" rx="12" fill="#F2F2F7"/>
<g clip-path="url(#clip0_2123_755)">
<path d="M23.5417 30.1724L26.8562 20.2286C26.979 19.8603 26.7799 19.462 26.4115 19.3392C26.0432 19.2165 25.6449 19.4155 25.5221 19.7839L22.2076 29.7277C22.0848 30.0961 22.2839 30.4943 22.6523 30.6171C22.726 30.6416 22.801 30.6533 22.8747 30.6533C23.1691 30.6534 23.4434 30.467 23.5417 30.1724Z" fill="#0F172A"/>
<path d="M28.5093 27.0876C29.6724 27.0876 30.6187 26.1414 30.6187 24.9783C30.6187 23.8152 29.6724 22.8689 28.5093 22.8689C27.3462 22.8689 26.4 23.8152 26.4 24.9783C26.4 26.1414 27.3462 27.0876 28.5093 27.0876ZM28.5093 24.2751C28.897 24.2751 29.2125 24.5906 29.2125 24.9783C29.2125 25.366 28.897 25.6814 28.5093 25.6814C28.1216 25.6814 27.8062 25.366 27.8062 24.9783C27.8062 24.5906 28.1216 24.2751 28.5093 24.2751Z" fill="#0F172A"/>
<path d="M20.5544 22.8689C19.3913 22.8689 18.445 23.8152 18.445 24.9783C18.445 26.1414 19.3913 27.0876 20.5544 27.0876C21.7175 27.0876 22.6638 26.1414 22.6638 24.9783C22.6638 23.8152 21.7175 22.8689 20.5544 22.8689ZM20.5544 25.6814C20.1667 25.6814 19.8513 25.366 19.8513 24.9783C19.8513 24.5906 20.1667 24.2751 20.5544 24.2751C20.9421 24.2751 21.2575 24.5906 21.2575 24.9783C21.2575 25.366 20.9421 25.6814 20.5544 25.6814Z" fill="#0F172A"/>
<path d="M37.8596 22.719L35.4077 19.4498L35.5034 18.7803C35.5347 18.5612 35.461 18.3401 35.3045 18.1836L33.8129 16.6921L35.3045 15.2005C35.579 14.926 35.579 14.4807 35.3045 14.2062C35.0299 13.9316 34.5847 13.9316 34.3101 14.2062L32.8186 15.6977L31.327 14.2062C31.1705 14.0496 30.9495 13.9762 30.7304 14.0073L23.7698 15.0016C23.6192 15.0231 23.4796 15.0929 23.372 15.2005L14.7542 23.8184C13.7489 24.8236 13.7489 26.4592 14.7542 27.4644L22.0462 34.7565C22.1953 34.9056 22.3587 35.0322 22.5315 35.137V35.4221C22.5315 36.8437 23.688 38.0002 25.1096 38.0002H35.4221C36.8437 38.0002 38.0002 36.8437 38.0002 35.4221V23.1409C38.0002 22.9887 37.9509 22.8407 37.8596 22.719ZM15.7485 26.4701C15.2916 26.0131 15.2916 25.2697 15.7485 24.8127L24.2007 16.3606L30.5812 15.4491L31.8242 16.6921L30.8298 17.6865L30.3326 17.1893C30.0581 16.9147 29.6128 16.9147 29.3382 17.1893C29.0637 17.4638 29.0637 17.909 29.3382 18.1836L31.327 20.1724C31.4643 20.3097 31.6443 20.3784 31.8242 20.3784C32.0041 20.3784 32.1841 20.3097 32.3213 20.1724C32.5959 19.8979 32.5959 19.4526 32.3213 19.178L31.8241 18.6808L32.8185 17.6865L34.0615 18.9295L33.1499 25.31L24.6979 33.7621C24.4765 33.9835 24.1822 34.1053 23.8692 34.1053C23.5562 34.1053 23.2619 33.9834 23.0405 33.7621L15.7485 26.4701ZM36.594 35.4221C36.594 36.0683 36.0683 36.594 35.4221 36.594H25.1096C24.4925 36.594 23.9857 36.1145 23.9412 35.5086C24.5772 35.491 25.2079 35.2408 25.6922 34.7565L34.31 26.1386C34.4176 26.031 34.4874 25.8915 34.5089 25.7409L35.1264 21.4185L36.594 23.3752V35.4221Z" fill="#0F172A"/>
</g>
<defs>
<clipPath id="clip0_2123_755">
<rect width="24" height="24" fill="white" transform="translate(14 14)"/>
</clipPath>
</defs>
</svg>

<svg xmlns="http://www.w3.org/2000/svg" width="52" height="52" fill="none"><rect width="52" height="52" fill="#F2F2F7" rx="12"/><g fill="#0F172A" clip-path="url(#a)"><path d="m23.542 30.172 3.314-9.943a.703.703 0 0 0-1.334-.445l-3.314 9.944a.703.703 0 0 0 1.334.444ZM28.51 27.088c1.162 0 2.109-.947 2.109-2.11 0-1.163-.947-2.11-2.11-2.11-1.163 0-2.109.947-2.109 2.11 0 1.163.946 2.11 2.11 2.11Zm0-2.813a.704.704 0 1 1-.002 1.408.704.704 0 0 1 .001-1.408ZM20.554 22.869c-1.163 0-2.109.946-2.109 2.11 0 1.162.946 2.109 2.11 2.109 1.163 0 2.109-.947 2.109-2.11 0-1.163-.947-2.11-2.11-2.11Zm0 2.812a.704.704 0 1 1 .002-1.407.704.704 0 0 1-.002 1.407Z"/><path d="m37.86 22.719-2.452-3.27.095-.669a.703.703 0 0 0-.199-.596l-1.491-1.492 1.491-1.492a.703.703 0 0 0-.994-.994l-1.491 1.492-1.492-1.492a.703.703 0 0 0-.597-.199l-6.96.995a.703.703 0 0 0-.398.198l-8.618 8.618a2.58 2.58 0 0 0 0 3.646l7.292 7.293c.15.149.313.275.486.38v.285A2.581 2.581 0 0 0 25.11 38h10.312A2.581 2.581 0 0 0 38 35.422V23.141c0-.152-.05-.3-.14-.422ZM15.749 26.47a1.173 1.173 0 0 1 0-1.657L24.2 16.36l6.38-.912 1.243 1.243-.994.994-.497-.497a.703.703 0 0 0-.995.995l1.989 1.988a.701.701 0 0 0 .994 0 .703.703 0 0 0 0-.994l-.497-.497.994-.995 1.244 1.244-.912 6.38-8.452 8.452a1.164 1.164 0 0 1-.829.343c-.313 0-.607-.122-.828-.343l-7.293-7.292Zm20.845 8.952c0 .646-.526 1.172-1.172 1.172H25.11c-.617 0-1.124-.48-1.169-1.085a2.568 2.568 0 0 0 1.751-.752l8.618-8.618a.703.703 0 0 0 .199-.398l.617-4.322 1.468 1.956v12.047Z"/></g><defs><clipPath id="a"><path fill="#fff" d="M14 14h24v24H14z"/></clipPath></defs></svg>
